rospo-icon-theme-newyear-common/32x32/places/folder-teal-image-people.svg

<svg height="32" width="32" xmlns="http://www.w3.org/2000/svg"><rect height="16" opacity=".2" rx="1.25" width="25" x="3" y="12"/><path d="m3 21.75c0 .692.5575 1.25 1.25 1.25h22.5c.692 0 1.25-.558 1.25-1.25v-13.5c0-.6925-.558-1.25-1.25-1.25h-12.75v-.75c0-.6925-.557-1.25-1.25-1.25h-8.5c-.6925 0-1.25.5575-1.25 1.25" fill="#12806a"/><rect height="16" opacity=".2" rx="1.25" width="25" x="3" y="10"/><rect fill="#e4e4e4" height="10" rx="1.25" width="21" x="5" y="9"/><rect fill="#16a085" height="16" rx="1.25" width="25" x="3" y="11"/><path d="m4.25 5c-.6925 0-1.25.5575-1.25 1.25v1c0-.6925.5575-1.25 1.25-1.25h8.5c.693 0 1.25.5575 1.25 1.25v.75h12.75c.692 0 1.25.5575 1.25 1.25v-1c0-.6925-.558-1.25-1.25-1.25h-12.75v-.75c0-.6925-.557-1.25-1.25-1.25z" fill="#fff" opacity=".1"/><path d="m13.41 16.301c-.034.007-.069.02-.101.035-.323.151-.407.623-.186 1.06.178.352.493.57.779.563.216 1.169 1.074 2.041 2.098 2.041s1.882-.872 2.098-2.041c.286.007.601-.211.779-.563.221-.437.137-.909-.186-1.06-.032-.015-.067-.028-.101-.035-.042-1.278-1.184-2.301-2.59-2.301s-2.548 1.023-2.59 2.301zm2.586 4.699c-.583 0-1.109-.29-1.496-.752-1.631.241-3.375.59-3.484.988-.002.006.001.013 0 .018-.005.02-.006.038-.008.058-.001.01-.008.016-.008.026v1.394c0 .149.111.268.25.268h9.5c.139 0 .25-.119.25-.268v-1.404c-.001-.032-.015-.06-.023-.092-.116-.414-1.806-.777-3.409-1.019-.123.172-.287.327-.507.443l-.002.002c-.312.215-.673.338-1.055.338" fill="#08382e"/></svg>

<svg xmlns="http://www.w3.org/2000/svg" width="32" height="32" version="1">
 <rect style="opacity:0.2" width="25" height="16" x="3" y="12" rx="1.25" ry="1.25"/>
 <path style="fill:#12806a" d="M 3,21.75 C 3,22.442 3.5575,23 4.25,23 H 26.75 C 27.442,23 28,22.442 28,21.75 V 8.25 C 28,7.5575 27.442,7 26.75,7 H 14 V 6.25 C 14,5.5575 13.443,5 12.75,5 H 4.25 C 3.5575,5 3,5.5575 3,6.25"/>
 <rect style="opacity:0.2" width="25" height="16" x="3" y="10" rx="1.25" ry="1.25"/>
 <rect style="fill:#dcdcdc" width="21" height="10" x="5" y="9" rx="1.25" ry="1.25"/>
 <rect style="fill:#16a085" width="25" height="16" x="3" y="11" rx="1.25" ry="1.25"/>
 <path style="opacity:0.1;fill:#ffffff" d="M 4.25 5 C 3.5575 5 3 5.5575 3 6.25 L 3 7.25 C 3 6.5575 3.5575 6 4.25 6 L 12.75 6 C 13.443 6 14 6.5575 14 7.25 L 14 8 L 26.75 8 C 27.442 8 28 8.5575 28 9.25 L 28 8.25 C 28 7.5575 27.442 7 26.75 7 L 14 7 L 14 6.25 C 14 5.5575 13.443 5 12.75 5 L 4.25 5 z"/>
 <path style="fill:#08382e" d="M 13.41,16.301 C 13.376,16.308 13.341,16.321 13.309,16.336 12.986,16.487 12.902,16.959 13.123,17.396 13.301,17.748 13.616,17.966 13.902,17.959 14.118,19.128 14.976,20 16,20 17.024,20 17.882,19.128 18.098,17.959 18.384,17.966 18.699,17.748 18.877,17.396 19.098,16.959 19.014,16.487 18.691,16.336 18.659,16.321 18.624,16.308 18.59,16.301 18.548,15.023 17.406,14 16,14 14.594,14 13.452,15.023 13.41,16.301 Z M 15.996,21 C 15.413,21 14.887,20.71 14.5,20.248 12.869,20.489 11.125,20.838 11.016,21.236 11.014,21.242 11.017,21.249 11.016,21.254 11.011,21.274 11.01,21.292 11.008,21.312 11.007,21.322 11,21.328 11,21.338 V 22.732 C 11,22.881 11.111,23 11.25,23 H 20.75 C 20.889,23 21,22.881 21,22.732 V 21.328 C 20.999,21.296 20.985,21.268 20.977,21.236 20.861,20.822 19.171,20.459 17.568,20.217 17.445,20.389 17.281,20.544 17.061,20.66 L 17.059,20.662 C 16.747,20.877 16.386,21 16.004,21"/>
</svg>
